X:4
T:Tegelslagarns Polska
O:Västervik, Småland
R:Polska
S:Efter Gustaf Eriksson
B:50 Småländska låtar
N:Nr. 4
Z:Jonas Brunskog 2008-11-26
M:3/4
L:1/8
K:C
|:((3G^FG) (c>G) E>G|G>A B>c d2|((3d^cd) (f>e) d>c|((3cBc) (d>c) B>A|
((3G^FG) (c>G) E>G|G>A B>c d2|(d>e) f>g a>f|f>d d2 [cE]2:|
|:((3ceg) c'2 c'>c'|c'>b b2 (b>b)|b>a a2 (a>a)|a>g g>c' e>g|
((3gfg) (a>f) d>f|((3fef) (g>e) c>e|((3ede) (f>d) B>d|dz [cEG,]4:|

